X: 20802
T: If you had been where I have been
N: "Battle of Killicrankie" handwritten at bottom of page.
%R: reel
B: James Oswald "The Caledonian Pocket Companion" v.2 p.80 #2 (plus top 7 staff lines of p.81)
Z: 2019 John Chambers <jc:trillian.mit.edu>
M: 2/4
L: 1/16
K: D
"_Lively"de |\
f4 {g}f2ed | g4 {a}g2fe | Tf4 gfed | f2a2 z2de |\
f4 (gfed) | g4 agfe | (fga2) Te3d | B2 d4 :|
|: fg |\
a2A2 A2B=c | B2AB G2fg | a2A2a2A2 | Tf2a2 z2fg |\
a2A2 A2B=c | (d=cB)A G2g2 | (fga2) Te3d | B2 d4 :|
|: ag |\
f2 d4 (ef) | g2 e4 (ag) | f2 d4 (ef) | (ed)(cB) A2(ag) |\
f2 d4 (ef) | g2 e4 g2 | fga2 Te3d | B2 d4 :|
|: fg |\
aABA aABA | B2g2 G2(fg) | .a(ABA) .a(ABA) | f2 a4 fg |\
.a(ABA) .a(ABA) | B2G2 g3b | af3 Te3d | B2 d4 :|
|: ef |\
fefg fdef | g2G2 z2de | fdef gefg | a2A2 z2a2 |\
bagf gfed | B2G2 b2(ag) | fgaf gfed | B2 d4 :|
|: (ag) |\
fd A4 (dc) | Bd G4 (ag) | fdAa fdAg | f2a2 z2ag | fdaf dAB=c | B2G2 b4 | af3 Te3d | B2 d4 :|


